jupyterlab-amphi/packages/pipeline-components-core/style/icons/outline-24.svg

<svg width="24" height="24" viewBox="0 0 24 24" fill="none" xmlns="http://www.w3.org/2000/svg">
<g id="size=24">
<g id="Path">
<path d="M6.5 5.75C6.5 5.33579 6.83579 5 7.25 5H7.26C7.67421 5 8.01 5.33579 8.01 5.75C8.01 6.16421 7.67421 6.5 7.26 6.5H7.25C6.83579 6.5 6.5 6.16421 6.5 5.75Z" fill="#000001"/>
<path d="M7.25 9C6.83579 9 6.5 9.33579 6.5 9.75C6.5 10.1642 6.83579 10.5 7.25 10.5H7.26C7.67421 10.5 8.01 10.1642 8.01 9.75C8.01 9.33579 7.67421 9 7.26 9H7.25Z" fill="#000001"/>
<path d="M6.5 13.75C6.5 13.3358 6.83579 13 7.25 13H7.26C7.67421 13 8.01 13.3358 8.01 13.75C8.01 14.1642 7.67421 14.5 7.26 14.5H7.25C6.83579 14.5 6.5 14.1642 6.5 13.75Z" fill="#000001"/>
<path d="M7.25 17C6.83579 17 6.5 17.3358 6.5 17.75C6.5 18.1642 6.83579 18.5 7.25 18.5H7.26C7.67421 18.5 8.01 18.1642 8.01 17.75C8.01 17.3358 7.67421 17 7.26 17H7.25Z" fill="#000001"/>
<path d="M9.5 9.75C9.5 9.33579 9.83579 9 10.25 9H14.75C15.1642 9 15.5 9.33579 15.5 9.75C15.5 10.1642 15.1642 10.5 14.75 10.5H10.25C9.83579 10.5 9.5 10.1642 9.5 9.75Z" fill="#000001"/>
<path d="M10.25 5C9.83579 5 9.5 5.33579 9.5 5.75C9.5 6.16421 9.83579 6.5 10.25 6.5H16.75C17.1642 6.5 17.5 6.16421 17.5 5.75C17.5 5.33579 17.1642 5 16.75 5H10.25Z" fill="#000001"/>
<path d="M9.5 13.75C9.5 13.3358 9.83579 13 10.25 13H16.75C17.1642 13 17.5 13.3358 17.5 13.75C17.5 14.1642 17.1642 14.5 16.75 14.5H10.25C9.83579 14.5 9.5 14.1642 9.5 13.75Z" fill="#000001"/>
<path d="M10.25 17C9.83579 17 9.5 17.3358 9.5 17.75C9.5 18.1642 9.83579 18.5 10.25 18.5H13.75C14.1642 18.5 14.5 18.1642 14.5 17.75C14.5 17.3358 14.1642 17 13.75 17H10.25Z" fill="#000001"/>
<path fill-rule="evenodd" clip-rule="evenodd" d="M3 3.75C3 2.23122 4.23122 1 5.75 1H18.25C19.7688 1 21 2.23122 21 3.75V20.25C21 21.7688 19.7688 23 18.25 23H5.75C4.23122 23 3 21.7688 3 20.25V3.75ZM5.75 2.5C5.05964 2.5 4.5 3.05964 4.5 3.75V20.25C4.5 20.9404 5.05964 21.5 5.75 21.5H18.25C18.9404 21.5 19.5 20.9404 19.5 20.25V3.75C19.5 3.05964 18.9404 2.5 18.25 2.5H5.75Z" fill="#000001"/>
</g>
</g>
</svg>

<svg xmlns="http://www.w3.org/2000/svg" width="24" height="24" fill="none" viewBox="0 0 24 24"><g fill="currentColor"><path d="M6.5 5.75A.75.75 0 017.25 5h.01a.75.75 0 010 1.5h-.01a.75.75 0 01-.75-.75zM7.25 9a.75.75 0 000 1.5h.01a.75.75 0 000-1.5h-.01zM6.5 13.75a.75.75 0 01.75-.75h.01a.75.75 0 010 1.5h-.01a.75.75 0 01-.75-.75zM7.25 17a.75.75 0 000 1.5h.01a.75.75 0 000-1.5h-.01zM9.5 9.75a.75.75 0 01.75-.75h4.5a.75.75 0 010 1.5h-4.5a.75.75 0 01-.75-.75zM10.25 5a.75.75 0 000 1.5h6.5a.75.75 0 000-1.5h-6.5zM9.5 13.75a.75.75 0 01.75-.75h6.5a.75.75 0 010 1.5h-6.5a.75.75 0 01-.75-.75zM10.25 17a.75.75 0 000 1.5h3.5a.75.75 0 000-1.5h-3.5z"/><path fill-rule="evenodd" d="M3 3.75A2.75 2.75 0 015.75 1h12.5A2.75 2.75 0 0121 3.75v16.5A2.75 2.75 0 0118.25 23H5.75A2.75 2.75 0 013 20.25V3.75zM5.75 2.5c-.69 0-1.25.56-1.25 1.25v16.5c0 .69.56 1.25 1.25 1.25h12.5c.69 0 1.25-.56 1.25-1.25V3.75c0-.69-.56-1.25-1.25-1.25H5.75z" clip-rule="evenodd"/></g></svg>
